status/battery-good-charging-symbolic.svg

<?xml version="1.0" encoding="UTF-8" standalone="no"?>
<!-- Created with Inkscape (http://www.inkscape.org/) -->

<svg
   xmlns:dc="http://purl.org/dc/elements/1.1/"
   xmlns:cc="http://creativecommons.org/ns#"
   xmlns:rdf="http://www.w3.org/1999/02/22-rdf-syntax-ns#"
   xmlns:svg="http://www.w3.org/2000/svg"
   xmlns="http://www.w3.org/2000/svg"
   xmlns:sodipodi="http://sodipodi.sourceforge.net/DTD/sodipodi-0.dtd"
   xmlns:inkscape="http://www.inkscape.org/namespaces/inkscape"
   width="16"
   height="16"
   id="svg4152"
   version="1.1"
   inkscape:version="0.92.1 r"
   viewBox="0 0 16 16"
   sodipodi:docname="battery-good-charging-symbolic.svg">
  <defs
     id="defs4154" />
  <sodipodi:namedview
     id="base"
     pagecolor="#ededed"
     bordercolor="#000000"
     borderopacity="0.49803922"
     inkscape:pageopacity="0"
     inkscape:pageshadow="2"
     inkscape:zoom="31.392433"
     inkscape:cx="5.9903329"
     inkscape:cy="5.064223"
     inkscape:current-layer="layer1"
     showgrid="true"
     inkscape:grid-bbox="true"
     inkscape:document-units="px"
     inkscape:showpageshadow="false"
     borderlayer="true"
     inkscape:window-width="1920"
     inkscape:window-height="1012"
     inkscape:window-x="0"
     inkscape:window-y="32"
     inkscape:window-maximized="1">
    <inkscape:grid
       type="xygrid"
       id="grid4700"
       color="#000000"
       opacity="0.0627451"
       empcolor="#000000"
       empopacity="0.1254902"
       empspacing="4"
       spacingx="2"
       spacingy="2" />
  </sodipodi:namedview>
  <metadata
     id="metadata4157">
    <rdf:RDF>
      <cc:Work
         rdf:about="">
        <dc:format>image/svg+xml</dc:format>
        <dc:type
           rdf:resource="http://purl.org/dc/dcmitype/StillImage" />
        <dc:title />
      </cc:Work>
    </rdf:RDF>
  </metadata>
  <g
     id="layer1"
     inkscape:label="Layer 1"
     inkscape:groupmode="layer">
    <path
       style="color:#000000;font-style:normal;font-variant:normal;font-weight:normal;font-stretch:normal;font-size:medium;line-height:normal;font-family:sans-serif;font-variant-ligatures:normal;font-variant-position:normal;font-variant-caps:normal;font-variant-numeric:normal;font-variant-alternates:normal;font-feature-settings:normal;text-indent:0;text-align:start;text-decoration:none;text-decoration-line:none;text-decoration-style:solid;text-decoration-color:#000000;letter-spacing:normal;word-spacing:normal;text-transform:none;writing-mode:lr-tb;direction:ltr;text-orientation:mixed;dominant-baseline:auto;baseline-shift:baseline;text-anchor:start;white-space:normal;shape-padding:0;clip-rule:nonzero;display:inline;overflow:visible;visibility:visible;opacity:1;isolation:auto;mix-blend-mode:normal;color-interpolation:sRGB;color-interpolation-filters:linearRGB;solid-color:#000000;solid-opacity:1;vector-effect:none;fill:#000000;fill-opacity:1;fill-rule:evenodd;stroke:none;stroke-width:2;stroke-linecap:butt;stroke-linejoin:round;stroke-miterlimit:4;stroke-dasharray:none;stroke-dashoffset:0;stroke-opacity:1;color-rendering:auto;image-rendering:auto;shape-rendering:auto;text-rendering:auto;enable-background:accumulate"
       d="M 7 0 C 6.4477381 5.5217905e-05 6.0000552 0.44773812 6 1 L 6 2 L 4 2 C 3.4477381 2.0000552 3.0000552 2.4477381 3 3 L 3 15 C 3.0000552 15.552262 3.4477381 15.999945 4 16 L 12 16 C 12.552262 15.999945 12.999945 15.552262 13 15 L 13 3 C 12.999945 2.4477381 12.552262 2.0000552 12 2 L 10 2 L 10 1 C 9.9999448 0.44773812 9.5522619 5.5217905e-05 9 0 L 7 0 z M 5 4 L 11 4 L 11 8 L 10.728516 8 C 11.015535 8.4951724 11.076682 9.0895773 10.896484 9.6328125 L 9.8964844 12.632812 C 9.1059537 15.265966 5.154455 13.947444 6.1035156 11.367188 L 6.2714844 10.861328 C 5.2806544 10.473033 4.767349 9.3768948 5.1035156 8.3671875 L 5.2265625 8 L 5 8 L 5 4 z "
       id="path4486" />
    <path
       style="color:#000000;font-style:normal;font-variant:normal;font-weight:normal;font-stretch:normal;font-size:medium;line-height:normal;font-family:sans-serif;font-variant-ligatures:normal;font-variant-position:normal;font-variant-caps:normal;font-variant-numeric:normal;font-variant-alternates:normal;font-feature-settings:normal;text-indent:0;text-align:start;text-decoration:none;text-decoration-line:none;text-decoration-style:solid;text-decoration-color:#000000;letter-spacing:normal;word-spacing:normal;text-transform:none;writing-mode:lr-tb;direction:ltr;text-orientation:mixed;dominant-baseline:auto;baseline-shift:baseline;text-anchor:start;white-space:normal;shape-padding:0;clip-rule:nonzero;display:inline;overflow:visible;visibility:visible;opacity:1;isolation:auto;mix-blend-mode:normal;color-interpolation:sRGB;color-interpolation-filters:linearRGB;solid-color:#000000;solid-opacity:1;vector-effect:none;fill:#000000;fill-opacity:1;fill-rule:evenodd;stroke:none;stroke-width:2;stroke-linecap:round;stroke-linejoin:round;stroke-miterlimit:4;stroke-dasharray:none;stroke-dashoffset:0;stroke-opacity:1;color-rendering:auto;image-rendering:auto;shape-rendering:auto;text-rendering:auto;enable-background:accumulate"
       d="M 8.0117188,4.9863279 A 1.0001,1.0001 0 0 0 7.0507812,5.6835936 l -1,3 A 1.0001,1.0001 0 0 0 7,10 h 0.6113281 l -0.5605469,1.683594 a 1.0005644,1.0005644 0 1 0 1.8984376,0.632812 l 1,-3 A 1.0001,1.0001 0 0 0 9,7.9999998 H 8.3886719 L 8.9492188,6.316406 a 1.0001,1.0001 0 0 0 -0.9375,-1.3300781 z"
       id="path4484-7"
       inkscape:connector-curvature="0" />
  </g>
</svg>

<svg xmlns="http://www.w3.org/2000/svg" width="16" height="16">
    <g fill-rule="evenodd">
        <path d="M7 0a1 1 0 0 0-1 1v1H4a1 1 0 0 0-1 1v12a1 1 0 0 0 1 1h8a1 1 0 0 0 1-1V3a1 1 0 0 0-1-1h-2V1a1 1 0 0 0-1-1H7zM5 4h6v4h-.271a2 2 0 0 1 .167 1.633l-1 3c-.79 2.633-4.742 1.314-3.792-1.266l.167-.506a2 2 0 0 1-1.167-2.494L5.227 8H5V4z"/>
        <path d="M8.012 4.986a1 1 0 0 0-.961.698l-1 3A1 1 0 0 0 7 10h.611l-.56 1.684a1 1 0 1 0 1.898.632l1-3A1 1 0 0 0 9 8h-.611l.56-1.684a1 1 0 0 0-.937-1.33z"/>
    </g>
</svg>
